src/assets/trash-icon.svg

<svg width="15" height="20" viewBox="0 0 13 16" fill="none" xmlns="http://www.w3.org/2000/svg">
<path fill-rule="evenodd" clip-rule="evenodd" d="M8.47225 0L9.36117 0.888875H12.4722V2.66667H0.027832V0.888875H3.13892L4.02783 0H8.47225ZM2.6945 16C1.71225 16 0.916707 15.2045 0.916707 14.2222V3.55554H11.5834V14.2222C11.5834 15.2045 10.7878 16 9.80562 16H2.6945Z" fill="#888EB0"/>
</svg>

<svg width="15" height="20" viewBox="0 0 13 16" fill="none" xmlns="http://www.w3.org/2000/svg"><path fill-rule="evenodd" clip-rule="evenodd" d="M8.472 0l.89.889h3.11v1.778H.028V.889h3.11L4.029 0h4.444zM2.695 16a1.777 1.777 0 01-1.778-1.778V3.556h10.666v10.666c0 .982-.795 1.778-1.777 1.778H2.695z" fill="#888EB0"/></svg>
